!!!COM: Gioseffo Zarlino
!!!OPR: Le istitutioni harmoniche
!!!OTL: Type Five: Canon at the fifth above after a minim, cantus firmus above.
!!!PPR: Francesco Senese
!!!PDT: 1573
!!!PPP: Venice
!!!ONB: Reprint ed., New York: Broude Bros., 1965. ch. 63, p.309.
!!!ONB: Transcribed from Gioseffo Zarlino, Le Istitutioni Harmoniche, 1573,
!!!ONB: translated as "The Art of Counterpoint" by Guy Marco and
!!!ONB: Claude Palisca; New York: W.W. Norton, 1968, p. 218.
**kern	**kern	**kern
*CF	*guida	*conseq
*k[]	*k[]	*k[]
*M4/2	*M4/2	*M4/2
=1-	=1-	=1-
1A	2r	1r
.	2.AA	.
1A	.	2.E
.	4BB	.
.	4C	.
.	4D	4F
=2	=2	=2
1G	4E	4G
.	4F	4A
.	2G	4B
.	.	4c
1A	1F	2d
.	.	[2c
=3	=3	=3
1c	2.C	2c]
.	.	2.G
.	4D	.
1B	4E	.
.	4F	4A
.	2G	4B
.	.	4c
=4	=4	=4
1A	4F	2d
.	4D	.
.	2F	4c
.	.	4A
1G	2E	2c
.	2G	2B
=5	=5	=5
1A	2D	2d
.	2F	2A
1A	4FF	2c
.	4GG	.
.	4AA	4C
.	4BB	4D
=6	=6	=6
1G	4C	4E
.	4D	4F
.	2E	4G
.	.	4A
1F	2D	2B-
.	[2D	2A
=7	=7	=7
1D	4D]	2.A
.	4E	.
.	2F	.
.	.	4B
1E	2C	2c
.	[2C	2G
=8	=8	=8
1E	4C]	2.G
.	4D	.
.	2.E	.
.	.	4A
1G	.	2.B
.	4F	.
.	2G	.
.	.	4c
=9	=9	=9
1A	2D	2d
.	2.D	2A
1D	.	2.A
.	4E	.
.	2F	.
.	.	4B
=10	=10	=10
1E	2.C	2c
.	.	2.G
.	4D	.
1G	4E	.
.	4F	4A
.	2G	4B
.	.	4c
=11	=11	=11
1F	2D	2d
.	2F	2A
1E	1C	2c
.	.	[2G
=12	=12	=12
1D	2BB	2G]
.	2D	2F
1E	2C	2A
.	2G	2G
=13	=13	=13
1F	4D	2d
.	4E	.
.	4F	4A
.	4D	4B
1E	4E	4c
.	4F	4A
.	[2G	4B
.	.	4c
=14	=14	=14
[0D	2G]	[0d
.	2F	.
.	2B-	.
.	2A	.
=15	=15	=15
0D]	0A	0d]
==	==	==
*-	*-	*-
!!!CDT: 1517/3/22-1590/2/14
!!!CNT: Italia
!!!ODT: <1573//
!!!YEP: David Huron and Denis Collins
!!!YEN: Canada
!!!AIN: vox; ?
!!!AST: polyphony
!!!RDT: 1995 July 3
!!!YED: 1995 August 31
!!!AFR: cantus firmus canon
!!!AMT: simple quadruple
!!!EEV: 1.0
